src/assets/animalImage/img/crab.svg

<?xml version="1.0" encoding="UTF-8" standalone="no"?><!DOCTYPE svg PUBLIC "-//W3C//DTD SVG 1.1//EN" "http://www.w3.org/Graphics/SVG/1.1/DTD/svg11.dtd"><svg width="100%" height="100%" viewBox="0 0 293 279" version="1.1" xmlns="http://www.w3.org/2000/svg" xmlns:xlink="http://www.w3.org/1999/xlink" xml:space="preserve" style="fill-rule:evenodd;clip-rule:evenodd;stroke-linejoin:round;stroke-miterlimit:1.41421;"><path d="M291.465,182.622c-1.215,-3.141 -3.568,-5.606 -6.609,-6.953l-22.815,-10.132c-3.441,-1.518 -7.563,-1.365 -10.876,0.394c-3.046,-1.459 -6.593,-1.84 -9.906,-1.031l-26.503,6.619l-4.216,-19.45c0.807,-0.082 1.638,-0.247 2.588,-0.507l28.131,-11.621c1.094,-0.275 2.369,-0.622 3.635,-1.047l0.743,0.347l0.622,0.256l27.475,-2.456c1.235,0.931 2.294,3.028 3.091,4.622c1.119,2.19 2.175,4.243 4.475,4.243c2.353,0 3.359,-2.281 3.793,-3.259c1.357,-3.078 1.435,-6.484 0.229,-9.594c-1.207,-3.122 -3.56,-5.59 -6.619,-6.956l-22.838,-10.128c-3.446,-1.494 -7.537,-1.356 -10.859,0.4c-3.059,-1.481 -6.644,-1.863 -9.891,-1.038l-29.606,7.388c-0.297,0.078 -0.6,0.162 -0.919,0.269l7.691,-5.441c1.822,-1.291 3.284,-3.041 4.241,-5.053c3.053,-2.038 5.159,-5.116 5.937,-8.678l2.678,-12.063c12.128,-23.544 13.113,-43.987 2.925,-60.74c-11.553,-19.022 -35.084,-27.197 -40.978,-27.197c-2.815,0 -3.397,1.887 -3.509,2.462c-0.544,2.819 2.715,4.116 5.097,5.072c5.656,2.272 9.497,5.735 11.415,10.288c3.431,8.221 -0.328,17.725 -0.328,17.725c-1.212,2.112 -2.269,2.112 -2.615,2.112c-3.788,0 -10.078,-7.913 -13.344,-13.541l-2.391,-4.103l-2.353,4.122c-4.844,8.485 -5.937,17.275 -3.269,26.113c4.275,14.137 16.885,24.334 22.691,28.409c-0.416,0.91 -0.731,1.847 -0.941,2.806l-2.762,12.432l-0.081,0.503l-10.479,7.431l-0.228,0.162c-1.818,-0.356 -3.534,-0.528 -5.253,-0.528l-63.009,0c-0.719,0 -1.428,0.032 -2.157,0.103c-0.903,-1.409 -2.021,-2.587 -3.356,-3.521l-10.509,-7.447l-0.091,-0.528l-2.762,-12.413c-0.216,-0.966 -0.535,-1.906 -0.941,-2.809c7.181,-5.113 34.985,-27.328 19.419,-54.529l-2.341,-4.121l-2.397,4.106c-3.262,5.622 -9.568,13.541 -13.356,13.541c-0.353,0 -1.384,0 -2.456,-1.807c-0.4,-1.012 -3.781,-10.096 -0.475,-18.022c1.915,-4.568 5.765,-8.034 11.409,-10.303c2.375,-0.947 5.635,-2.25 5.1,-5.072c-0.118,-0.578 -0.703,-2.459 -3.515,-2.459c-5.894,0 -29.407,8.181 -40.972,27.2c-10.194,16.766 -9.203,37.2 2.937,60.741l2.663,12.068c0.803,3.557 2.915,6.635 5.947,8.672c0.937,2.007 2.4,3.75 4.243,5.066l9.25,6.553l-0.234,0.488c-1.325,-0.86 -2.797,-1.507 -4.391,-1.913l-29.59,-7.362c-3.263,-0.825 -6.825,-0.454 -9.907,1.006c-3.324,-1.76 -7.462,-1.888 -10.881,-0.378l-22.794,10.112c-3.04,1.347 -5.371,3.794 -6.565,6.897c-1.238,3.2 -1.119,6.738 0.309,9.956c0.857,1.966 2.078,2.96 3.65,2.96c2.319,0 3.356,-2.044 4.5,-4.291c0.775,-1.553 1.832,-3.653 3.075,-4.581l27.291,2.459l0.209,0.013l0.647,-0.294l0.669,-0.328c1.075,0.375 2.231,0.709 3.287,0.931l28.872,11.878c1.5,0.385 3.082,0.513 4.703,0.372l-4.928,19.897l-28.281,-7.038c-3.278,-0.843 -6.85,-0.459 -9.919,0.997c-3.337,-1.734 -7.462,-1.872 -10.865,-0.39l-22.807,10.14c-3.087,1.369 -5.428,3.857 -6.609,7.007c-1.187,3.172 -1.056,6.668 0.35,9.853c0.853,1.972 2.072,2.959 3.644,2.959c2.34,0 3.384,-2.084 4.494,-4.306c0.734,-1.456 1.821,-3.625 3.09,-4.578l27.319,2.453l0.206,0.022l0.663,-0.307l0.634,-0.315c1.381,0.472 2.703,0.797 3.281,0.925l28.85,11.875c0.791,0.197 1.616,0.322 2.485,0.375c1.29,3.2 3.265,6.984 5.796,11.003l-17.328,10.409c-2.965,1.8 -5.131,4.466 -6.272,7.728c-3.634,1.138 -6.596,3.885 -7.971,7.422l-8.947,23.275c-1.228,3.132 -1.141,6.541 0.206,9.597c1.384,3.116 3.9,5.456 7.288,6.766c0.749,0.281 1.474,0.431 2.14,0.431c1.763,0 2.635,-1.019 2.86,-1.325c1.184,-1.637 0.571,-3.481 -0.203,-5.812c-0.519,-1.56 -1.291,-3.872 -1.047,-5.428l21.056,-17.597l0.165,-0.141l0.25,-0.703l0.207,-0.634c1.006,-0.491 2.022,-1.063 2.981,-1.651l22.897,-9.525c8.731,8.56 16.125,12.901 21.99,12.901l54.794,0c4.847,0 10.266,-2.985 16.125,-8.866l22.06,9.165c1.278,0.766 2.356,1.366 3.34,1.838l0.231,0.694l0.182,0.478l21.256,17.884c0.237,1.569 -0.528,3.881 -1.05,5.441c-0.763,2.331 -1.363,4.169 -0.188,5.797c0.366,0.525 1.222,1.375 2.788,1.375c0.7,0 1.422,-0.169 2.525,-0.594c6.459,-2.51 9.681,-9.797 7.181,-16.238l-8.95,-23.278c-1.372,-3.528 -4.325,-6.275 -7.969,-7.428c-1.128,-3.244 -3.34,-5.969 -6.268,-7.728l-18.319,-10.997c1.975,-3.65 3.665,-7.128 5.034,-10.381c1.485,0.078 2.869,-0.047 4.594,-0.519l28.144,-11.622c1.169,-0.3 2.428,-0.643 3.634,-1.062l0.653,0.315l0.65,0.297l27.513,-2.459c1.272,0.934 2.359,3.106 3.1,4.572c1.106,2.212 2.153,4.287 4.484,4.287c2.363,0 3.347,-2.268 3.785,-3.253c1.365,-3.069 1.453,-6.484 0.246,-9.606Z" style="fill:#f2675e;fill-rule:nonzero;"/><path d="M121.325,111.331c3.447,0 6.244,2.794 6.244,6.244c0,3.447 -2.797,6.244 -6.244,6.244c-3.45,0 -6.244,-2.797 -6.244,-6.244c0,-3.45 2.794,-6.244 6.244,-6.244Z" style="fill:#030404;fill-rule:nonzero;"/><path d="M121.325,111.331l0,1.563c2.584,0.003 4.675,2.097 4.681,4.681c-0.006,2.584 -2.097,4.675 -4.681,4.681c-2.588,-0.006 -4.678,-2.097 -4.681,-4.681c0.003,-2.584 2.093,-4.678 4.681,-4.681l0,-1.563l0,-1.562c-4.313,0 -7.806,3.494 -7.806,7.806c0,4.313 3.493,7.806 7.806,7.806c4.309,0 7.803,-3.493 7.806,-7.806c-0.003,-4.312 -3.497,-7.806 -7.806,-7.806l0,1.562Z" style="fill:#030404;fill-rule:nonzero;"/><path d="M170.662,111.331c3.447,0 6.244,2.794 6.244,6.244c0,3.447 -2.797,6.244 -6.244,6.244c-3.45,0 -6.243,-2.797 -6.243,-6.244c0,-3.45 2.793,-6.244 6.243,-6.244Z" style="fill:#030404;fill-rule:nonzero;"/><path d="M170.662,111.331l0,1.563c2.585,0.003 4.675,2.097 4.682,4.681c-0.007,2.584 -2.097,4.675 -4.682,4.681c-2.584,-0.006 -4.678,-2.097 -4.681,-4.681c0.003,-2.584 2.097,-4.678 4.681,-4.681l0,-1.563l0,-1.562c-4.312,0 -7.806,3.494 -7.806,7.806c0,4.313 3.494,7.806 7.806,7.806c4.313,0 7.803,-3.493 7.807,-7.806c-0.004,-4.312 -3.494,-7.806 -7.807,-7.806l0,1.562Z" style="fill:#030404;fill-rule:nonzero;"/></svg>

<?xml version="1.0" encoding="UTF-8" standalone="no"?>
<!DOCTYPE svg PUBLIC "-//W3C//DTD SVG 1.1//EN" "http://www.w3.org/Graphics/SVG/1.1/DTD/svg11.dtd">
<svg width="100%" height="100%" viewBox="0 0 293 293" version="1.1" xmlns="http://www.w3.org/2000/svg" xmlns:xlink="http://www.w3.org/1999/xlink" xml:space="preserve" xmlns:serif="http://www.serif.com/" style="fill-rule:evenodd;clip-rule:evenodd;stroke-linejoin:round;stroke-miterlimit:1.41421;">
    <g transform="matrix(1,0,0,1,0,7)">
        <path d="M291.465,182.622C290.25,179.481 287.897,177.016 284.856,175.669L262.041,165.537C258.6,164.019 254.478,164.172 251.165,165.931C248.119,164.472 244.572,164.091 241.259,164.9L214.756,171.519L210.54,152.069C211.347,151.987 212.178,151.822 213.128,151.562L241.259,139.941C242.353,139.666 243.628,139.319 244.894,138.894L245.637,139.241L246.259,139.497L273.734,137.041C274.969,137.972 276.028,140.069 276.825,141.663C277.944,143.853 279,145.906 281.3,145.906C283.653,145.906 284.659,143.625 285.093,142.647C286.45,139.569 286.528,136.163 285.322,133.053C284.115,129.931 281.762,127.463 278.703,126.097L255.865,115.969C252.419,114.475 248.328,114.613 245.006,116.369C241.947,114.888 238.362,114.506 235.115,115.331L205.509,122.719C205.212,122.797 204.909,122.881 204.59,122.988L212.281,117.547C214.103,116.256 215.565,114.506 216.522,112.494C219.575,110.456 221.681,107.378 222.459,103.816L225.137,91.753C237.265,68.209 238.25,47.766 228.062,31.013C216.509,11.991 192.978,3.816 187.084,3.816C184.269,3.816 183.687,5.703 183.575,6.278C183.031,9.097 186.29,10.394 188.672,11.35C194.328,13.622 198.169,17.085 200.087,21.638C203.518,29.859 199.759,39.363 199.759,39.363C198.547,41.475 197.49,41.475 197.144,41.475C193.356,41.475 187.066,33.562 183.8,27.934L181.409,23.831L179.056,27.953C174.212,36.438 173.119,45.228 175.787,54.066C180.062,68.203 192.672,78.4 198.478,82.475C198.062,83.385 197.747,84.322 197.537,85.281L194.775,97.713L194.694,98.216L184.215,105.647L183.987,105.809C182.169,105.453 180.453,105.281 178.734,105.281L115.725,105.281C115.006,105.281 114.297,105.313 113.568,105.384C112.665,103.975 111.547,102.797 110.212,101.863L99.703,94.416L99.612,93.888L96.85,81.475C96.634,80.509 96.315,79.569 95.909,78.666C103.09,73.553 130.894,51.338 115.328,24.137L112.987,20.016L110.59,24.122C107.328,29.744 101.022,37.663 97.234,37.663C96.881,37.663 95.85,37.663 94.778,35.856C94.378,34.844 90.997,25.76 94.303,17.834C96.218,13.266 100.068,9.8 105.712,7.531C108.087,6.584 111.347,5.281 110.812,2.459C110.694,1.881 110.109,0 107.297,0C101.403,0 77.89,8.181 66.325,27.2C56.131,43.966 57.122,64.4 69.262,87.941L71.925,100.009C72.728,103.566 74.84,106.644 77.872,108.681C78.809,110.688 80.272,112.431 82.115,113.747L91.365,120.3L91.131,120.788C89.806,119.928 88.334,119.281 86.74,118.875L57.15,111.513C53.887,110.688 50.325,111.059 47.243,112.519C43.919,110.759 39.781,110.631 36.362,112.141L13.568,122.253C10.528,123.6 8.197,126.047 7.003,129.15C5.765,132.35 5.884,135.888 7.312,139.106C8.169,141.072 9.39,142.066 10.962,142.066C13.281,142.066 14.318,140.022 15.462,137.775C16.237,136.222 17.294,134.122 18.537,133.194L45.828,135.653L46.037,135.666L46.684,135.372L47.353,135.044C48.428,135.419 49.584,135.753 50.64,135.975L79.512,147.853C81.012,148.238 82.594,148.366 84.215,148.225L79.287,168.122L51.006,161.084C47.728,160.241 44.156,160.625 41.087,162.081C37.75,160.347 33.625,160.209 30.222,161.691L7.415,171.831C4.328,173.2 1.987,175.688 0.806,178.838C-0.381,182.01 -0.25,185.506 1.156,188.691C2.009,190.663 3.228,191.65 4.8,191.65C7.14,191.65 8.184,189.566 9.294,187.344C10.028,185.888 11.115,183.719 12.384,182.766L39.703,185.219L39.909,185.241L40.572,184.934L41.206,184.619C42.587,185.091 43.909,185.416 44.487,185.544L73.337,197.419C74.128,197.616 74.953,197.741 75.822,197.794C77.112,200.994 79.087,204.778 81.618,208.797L64.29,219.206C61.325,221.006 59.159,223.672 58.018,226.934C54.384,228.072 51.422,230.819 50.047,234.356L41.1,257.631C39.872,260.763 39.959,264.172 41.306,267.228C42.69,270.344 45.206,272.684 48.594,273.994C49.343,274.275 50.068,274.425 50.734,274.425C52.497,274.425 53.369,273.406 53.594,273.1C54.778,271.463 54.165,269.619 53.391,267.288C52.872,265.728 52.1,263.416 52.344,261.86L73.4,244.263L73.565,244.122L73.815,243.419L74.022,242.785C75.028,242.294 76.044,241.722 77.003,241.134L99.9,231.609C108.631,240.169 116.025,244.51 121.89,244.51L176.684,244.51C181.531,244.51 186.95,241.525 192.809,235.644L214.869,244.809C216.147,245.575 217.225,246.175 218.209,246.647L218.44,247.341L218.622,247.819L239.878,265.703C240.115,267.272 239.35,269.584 238.828,271.144C238.065,273.475 237.465,275.313 238.64,276.941C239.006,277.466 239.862,278.316 241.428,278.316C242.128,278.316 242.85,278.147 243.953,277.722C250.412,275.212 253.634,267.925 251.134,261.484L242.184,238.206C240.812,234.678 237.859,231.931 234.215,230.778C233.087,227.534 230.875,224.809 227.947,223.05L209.628,212.053C211.603,208.403 213.293,204.925 214.662,201.672C216.147,201.75 217.531,201.625 219.256,201.153L247.4,189.531C248.569,189.231 249.828,188.888 251.034,188.469L251.687,188.784L252.337,189.081L279.85,186.622C281.122,187.556 282.209,189.728 282.95,191.194C284.056,193.406 285.103,195.481 287.434,195.481C289.797,195.481 290.781,193.213 291.219,192.228C292.584,189.159 292.672,185.744 291.465,182.622Z" style="fill:rgb(242,103,94);fill-rule:nonzero;"/>
    </g>
    <g transform="matrix(1,0,0,1,0,7)">
        <path d="M121.325,111.331C124.772,111.331 127.569,114.125 127.569,117.575C127.569,121.022 124.772,123.819 121.325,123.819C117.875,123.819 115.081,121.022 115.081,117.575C115.081,114.125 117.875,111.331 121.325,111.331Z" style="fill:rgb(3,4,4);fill-rule:nonzero;"/>
    </g>
    <g transform="matrix(1,0,0,1,0,7)">
        <path d="M121.325,111.331L121.325,112.894C123.909,112.897 126,114.991 126.006,117.575C126,120.159 123.909,122.25 121.325,122.256C118.737,122.25 116.647,120.159 116.644,117.575C116.647,114.991 118.737,112.897 121.325,112.894L121.325,111.331L121.325,109.769C117.012,109.769 113.519,113.263 113.519,117.575C113.519,121.888 117.012,125.381 121.325,125.381C125.634,125.381 129.128,121.888 129.131,117.575C129.128,113.263 125.634,109.769 121.325,109.769L121.325,111.331Z" style="fill:rgb(3,4,4);fill-rule:nonzero;"/>
    </g>
    <g transform="matrix(1,0,0,1,0,7)">
        <path d="M170.662,111.331C174.109,111.331 176.906,114.125 176.906,117.575C176.906,121.022 174.109,123.819 170.662,123.819C167.212,123.819 164.419,121.022 164.419,117.575C164.419,114.125 167.212,111.331 170.662,111.331Z" style="fill:rgb(3,4,4);fill-rule:nonzero;"/>
    </g>
    <g transform="matrix(1,0,0,1,0,7)">
        <path d="M170.662,111.331L170.662,112.894C173.247,112.897 175.337,114.991 175.344,117.575C175.337,120.159 173.247,122.25 170.662,122.256C168.078,122.25 165.984,120.159 165.981,117.575C165.984,114.991 168.078,112.897 170.662,112.894L170.662,111.331L170.662,109.769C166.35,109.769 162.856,113.263 162.856,117.575C162.856,121.888 166.35,125.381 170.662,125.381C174.975,125.381 178.465,121.888 178.469,117.575C178.465,113.263 174.975,109.769 170.662,109.769L170.662,111.331Z" style="fill:rgb(3,4,4);fill-rule:nonzero;"/>
    </g>
</svg>
